website/src/static/charts/vennchart.svg

<svg width="146" height="80" viewBox="0 0 146 80" fill="none" xmlns="http://www.w3.org/2000/svg">
<path opacity="0.5" fill-rule="evenodd" clip-rule="evenodd" d="M60.3303 13.9094C51.5818 19.3008 45.75 28.9694 45.75 40C45.75 51.0306 51.5817 60.6992 60.3303 66.0906C54.1385 71.6311 45.9627 75 37 75C17.67 75 2 59.33 2 40C2 20.67 17.67 5 37 5C45.9627 5 54.1385 8.36885 60.3303 13.9094Z" fill="#2BB3FF"/>
<path opacity="0.5" fill-rule="evenodd" clip-rule="evenodd" d="M60.3301 66.0906C67.4923 59.6818 71.9998 50.3673 71.9998 40C71.9998 29.6327 67.4923 20.3182 60.3301 13.9094C64.9961 11.0339 70.4917 9.375 76.3748 9.375C93.2885 9.375 107 23.0863 107 40C107 56.9137 93.2885 70.625 76.3748 70.625C70.4917 70.625 64.996 68.9662 60.3301 66.0906Z" fill="#59DDAA"/>
<g opacity="0.5">
<mask id="path-3-outside-1_751_30785" maskUnits="userSpaceOnUse" x="43.75" y="10.9094" width="31" height="58" fill="black">
<rect fill="white" x="43.75" y="10.9094" width="31" height="58"/>
<path fill-rule="evenodd" clip-rule="evenodd" d="M60.3303 66.0907C67.4925 59.6819 72 50.3674 72 40.0001C72 29.6328 67.4925 20.3182 60.3303 13.9094C51.5818 19.3009 45.75 28.9694 45.75 40.0001C45.75 51.0307 51.5818 60.6992 60.3303 66.0907Z"/>
</mask>
<path fill-rule="evenodd" clip-rule="evenodd" d="M60.3303 66.0907C67.4925 59.6819 72 50.3674 72 40.0001C72 29.6328 67.4925 20.3182 60.3303 13.9094C51.5818 19.3009 45.75 28.9694 45.75 40.0001C45.75 51.0307 51.5818 60.6992 60.3303 66.0907Z" fill="#59DDAA"/>
<path d="M60.3303 66.0907L59.281 67.7934L60.5516 68.5764L61.6639 67.5811L60.3303 66.0907ZM60.3303 13.9094L61.664 12.419L60.5517 11.4237L59.281 12.2068L60.3303 13.9094ZM70 40.0001C70 49.7748 65.7527 58.5548 58.9966 64.6003L61.6639 67.5811C69.2322 60.809 74 50.96 74 40.0001H70ZM58.9966 15.3998C65.7527 21.4453 70 30.2254 70 40.0001H74C74 29.0402 69.2322 19.1912 61.664 12.419L58.9966 15.3998ZM47.75 40.0001C47.75 29.6921 53.1972 20.6547 61.3796 15.6121L59.281 12.2068C49.9664 17.9471 43.75 28.2468 43.75 40.0001H47.75ZM61.3796 64.3881C53.1972 59.3455 47.75 50.3081 47.75 40.0001H43.75C43.75 51.7533 49.9663 62.053 59.281 67.7934L61.3796 64.3881Z" fill="white" mask="url(#path-3-outside-1_751_30785)"/>
</g>
<g opacity="0.5">
<mask id="path-5-outside-2_751_30785" maskUnits="userSpaceOnUse" x="43.75" y="10.9094" width="31" height="58" fill="black">
<rect fill="white" x="43.75" y="10.9094" width="31" height="58"/>
<path fill-rule="evenodd" clip-rule="evenodd" d="M60.3303 66.0907C67.4925 59.6819 72 50.3674 72 40.0001C72 29.6328 67.4925 20.3182 60.3303 13.9094C51.5818 19.3009 45.75 28.9694 45.75 40.0001C45.75 51.0307 51.5818 60.6992 60.3303 66.0907Z"/>
</mask>
<path fill-rule="evenodd" clip-rule="evenodd" d="M60.3303 66.0907C67.4925 59.6819 72 50.3674 72 40.0001C72 29.6328 67.4925 20.3182 60.3303 13.9094C51.5818 19.3009 45.75 28.9694 45.75 40.0001C45.75 51.0307 51.5818 60.6992 60.3303 66.0907Z" fill="#2BB3FF"/>
<path d="M60.3303 66.0907L59.281 67.7934L60.5516 68.5764L61.6639 67.5811L60.3303 66.0907ZM60.3303 13.9094L61.664 12.419L60.5517 11.4237L59.281 12.2068L60.3303 13.9094ZM70 40.0001C70 49.7748 65.7527 58.5548 58.9966 64.6003L61.6639 67.5811C69.2322 60.809 74 50.96 74 40.0001H70ZM58.9966 15.3998C65.7527 21.4453 70 30.2254 70 40.0001H74C74 29.0402 69.2322 19.1912 61.664 12.419L58.9966 15.3998ZM47.75 40.0001C47.75 29.6921 53.1972 20.6547 61.3796 15.6121L59.281 12.2068C49.9664 17.9471 43.75 28.2468 43.75 40.0001H47.75ZM61.3796 64.3881C53.1972 59.3455 47.75 50.3081 47.75 40.0001H43.75C43.75 51.7533 49.9663 62.053 59.281 67.7934L61.3796 64.3881Z" fill="white" mask="url(#path-5-outside-2_751_30785)"/>
</g>
<circle cx="37" cy="40" r="36" stroke="white" stroke-width="2"/>
<circle opacity="0.5" cx="37" cy="40" r="35" fill="#2BB3FF"/>
<circle cx="76.375" cy="40" r="31.625" stroke="white" stroke-width="2"/>
<circle opacity="0.5" cx="76.25" cy="39.875" r="30.5" fill="#59DDAA"/>
</svg>

<svg xmlns="http://www.w3.org/2000/svg" width="146" height="80" fill="none" viewBox="0 0 146 80">
  <path fill="#2BB3FF" fill-rule="evenodd" d="M60.33 13.91C51.582 19.3 45.75 28.97 45.75 40s5.832 20.7 14.58 26.09A34.87 34.87 0 0 1 37 75C17.67 75 2 59.33 2 40S17.67 5 37 5a34.87 34.87 0 0 1 23.33 8.91Z" clip-rule="evenodd" opacity=".5"/>
  <path fill="#59DDAA" fill-rule="evenodd" d="M60.33 66.09C67.492 59.683 72 50.368 72 40c0-10.367-4.508-19.682-11.67-26.09a30.482 30.482 0 0 1 16.045-4.535C93.288 9.375 107 23.086 107 40S93.288 70.625 76.375 70.625a30.48 30.48 0 0 1-16.045-4.534Z" clip-rule="evenodd" opacity=".5"/>
  <g opacity=".5">
    <mask id="a" width="31" height="58" x="43.75" y="10.909" fill="#000" maskUnits="userSpaceOnUse">
      <path fill="#fff" d="M43.75 10.909h31v58h-31z"/>
      <path fill-rule="evenodd" d="M60.33 66.09C67.493 59.683 72 50.368 72 40c0-10.367-4.507-19.682-11.67-26.09C51.582 19.3 45.75 28.97 45.75 40s5.832 20.7 14.58 26.09Z" clip-rule="evenodd"/>
    </mask>
    <path fill="#59DDAA" fill-rule="evenodd" d="M60.33 66.09C67.493 59.683 72 50.368 72 40c0-10.367-4.507-19.682-11.67-26.09C51.582 19.3 45.75 28.97 45.75 40s5.832 20.7 14.58 26.09Z" clip-rule="evenodd"/>
    <path fill="#fff" d="m60.33 66.09-1.049 1.703 1.27.783 1.113-.995-1.334-1.49Zm0-52.18 1.334-1.491-1.112-.995-1.271.783 1.05 1.702ZM70 40c0 9.775-4.247 18.555-11.003 24.6l2.667 2.981C69.232 60.81 74 50.96 74 40.001h-4ZM58.997 15.4C65.753 21.445 70 30.225 70 40h4c0-10.96-4.768-20.809-12.336-27.581l-2.667 2.98ZM47.75 40c0-10.308 5.447-19.345 13.63-24.388l-2.099-3.405C49.966 17.947 43.75 28.247 43.75 40h4Zm13.63 24.388C53.197 59.345 47.75 50.308 47.75 40h-4c0 11.753 6.216 22.053 15.531 27.793l2.099-3.405Z" mask="url(#a)"/>
  </g>
  <g opacity=".5">
    <mask id="b" width="31" height="58" x="43.75" y="10.909" fill="#000" maskUnits="userSpaceOnUse">
      <path fill="#fff" d="M43.75 10.909h31v58h-31z"/>
      <path fill-rule="evenodd" d="M60.33 66.09C67.493 59.683 72 50.368 72 40c0-10.367-4.507-19.682-11.67-26.09C51.582 19.3 45.75 28.97 45.75 40s5.832 20.7 14.58 26.09Z" clip-rule="evenodd"/>
    </mask>
    <path fill="#2BB3FF" fill-rule="evenodd" d="M60.33 66.09C67.493 59.683 72 50.368 72 40c0-10.367-4.507-19.682-11.67-26.09C51.582 19.3 45.75 28.97 45.75 40s5.832 20.7 14.58 26.09Z" clip-rule="evenodd"/>
    <path fill="#fff" d="m60.33 66.09-1.049 1.703 1.27.783 1.113-.995-1.334-1.49Zm0-52.18 1.334-1.491-1.112-.995-1.271.783 1.05 1.702ZM70 40c0 9.775-4.247 18.555-11.003 24.6l2.667 2.981C69.232 60.81 74 50.96 74 40.001h-4ZM58.997 15.4C65.753 21.445 70 30.225 70 40h4c0-10.96-4.768-20.809-12.336-27.581l-2.667 2.98ZM47.75 40c0-10.308 5.447-19.345 13.63-24.388l-2.099-3.405C49.966 17.947 43.75 28.247 43.75 40h4Zm13.63 24.388C53.197 59.345 47.75 50.308 47.75 40h-4c0 11.753 6.216 22.053 15.531 27.793l2.099-3.405Z" mask="url(#b)"/>
  </g>
  <circle cx="37" cy="40" r="36" stroke="#fff" stroke-width="2"/>
  <circle cx="37" cy="40" r="35" fill="#2BB3FF" opacity=".5"/>
  <circle cx="76.375" cy="40" r="31.625" stroke="#fff" stroke-width="2"/>
  <circle cx="76.25" cy="39.875" r="30.5" fill="#59DDAA" opacity=".5"/>
</svg>
